X:6111
T:Sloop John B
O:england
A:sea
C:anon.
R:Calypso, shanty
M:C
L:1/8
Q:1/4=120
K:F
C2|"F"AA2A A2B2|"F"A4 z2 C2|"F"A3A2AB2|"F"A4 z2 C2|
w:We sailed on the sloop John B., my grand-fath-er and me, a-
"F"A4AB2c-|"F"c3 (c2B)A2|"C7"G8|"C"z2 CC2DE2|
w:round Nas-sau town_ we_ did roam. Been drink-in' all
"F"F8|"F7"z2 FF2GA2|"Bb"B8-|"Bb"B2 z2 B2B2|
w:night, got in-to a fight._ Well I
"F"A2^GA2F3|"C7"z2 GG2FE2|"F"F8-|"F"F2 z2 z2|]
w:feel so break up. I want to go home._


